img/icons/htl_checklist-icon.svg

<svg width="59" height="59" viewBox="0 0 59 59" fill="none" xmlns="http://www.w3.org/2000/svg">
<g clip-path="url(#clip0)">
<path d="M4.75797 52.319H29.5V50.4154H4.75797C3.18136 50.4154 1.90314 49.1372 1.90314 47.5606V5.68961C1.90314 4.11252 3.18136 2.83478 4.75797 2.83478H46.629C48.2063 2.83478 49.4838 4.11252 49.4838 5.68961V27.5766H51.3874V5.68961C51.3843 3.06304 49.2558 0.934741 46.629 0.931641H4.75797C2.13188 0.934741 0.00333926 3.06304 0 5.68961V47.5606C0.00333926 50.1872 2.13188 52.3155 4.75797 52.319Z" fill="url(#paint0_linear)"/>
<path d="M3.80664 4.73828H5.70954V6.64118H3.80664V4.73828Z" fill="url(#paint1_linear)"/>
<path d="M7.61328 4.73828H9.5169V6.64118H7.61328V4.73828Z" fill="url(#paint2_linear)"/>
<path d="M11.4199 4.73828H13.3233V6.64118H11.4199V4.73828Z" fill="url(#paint3_linear)"/>
<path d="M3.80664 8.54443H47.5805V10.4481H3.80664V8.54443Z" fill="url(#paint4_linear)"/>
<path d="M13.6008 12.6299L11.1837 15.047C9.14052 13.6944 6.40447 14.1094 4.85386 16.0071C3.30349 17.9045 3.44255 20.6684 5.17515 22.4008C6.90751 24.1339 9.6717 24.2729 11.5694 22.7223C13.4668 21.172 13.882 18.4354 12.5292 16.3928L14.9461 13.9756L13.6008 12.6299ZM8.56354 21.867C6.98717 21.867 5.70895 20.589 5.70895 19.0124C5.70895 17.4356 6.98717 16.1578 8.56354 16.1578C8.98811 16.1592 9.40575 16.2566 9.78667 16.4428L7.89116 18.3386L9.2364 19.6843L11.1333 17.7898C11.3196 18.1704 11.4172 18.5881 11.4186 19.0124C11.4186 20.589 10.1409 21.867 8.56354 21.867Z" fill="url(#paint5_linear)"/>
<path d="M16.1777 16.1577H32.3548V18.0606H16.1777V16.1577Z" fill="url(#paint6_linear)"/>
<path d="M16.1777 19.9639H22.8388V21.8668H16.1777V19.9639Z" fill="url(#paint7_linear)"/>
<path d="M24.7422 19.9639H38.0644V21.8668H24.7422V19.9639Z" fill="url(#paint8_linear)"/>
<path d="M34.2578 16.1577H43.774V18.0606H34.2578V16.1577Z" fill="url(#paint9_linear)"/>
<path d="M13.6008 24.0491L11.1837 26.4662C9.14052 25.1136 6.40447 25.5286 4.85386 27.4263C3.30349 29.3239 3.44255 32.0876 5.17515 33.8205C6.90751 35.5531 9.6717 35.6921 11.5694 34.1415C13.4668 32.5909 13.882 29.8553 12.5292 27.8119L14.9461 25.3948L13.6008 24.0491ZM8.56354 33.2864C6.98717 33.2864 5.70895 32.0082 5.70895 30.4316C5.70895 28.8547 6.98717 27.5765 8.56354 27.5765C8.98811 27.5782 9.40575 27.6757 9.78667 27.862L7.89116 29.7583L9.2364 31.1035L11.1333 29.2087C11.3196 29.5896 11.4172 30.0073 11.4186 30.4316C11.4186 32.0082 10.1409 33.2864 8.56354 33.2864Z" fill="url(#paint10_linear)"/>
<path d="M16.1777 27.5767H32.3548V29.48H16.1777V27.5767Z" fill="url(#paint11_linear)"/>
<path d="M16.1777 31.3833H22.8388V33.2865H16.1777V31.3833Z" fill="url(#paint12_linear)"/>
<path d="M24.7422 31.3833H32.3548V33.2865H24.7422V31.3833Z" fill="url(#paint13_linear)"/>
<path d="M34.2578 27.5767H38.0641V29.48H34.2578V27.5767Z" fill="url(#paint14_linear)"/>
<path d="M13.6008 35.4685L11.1837 37.8857C9.14052 36.533 6.40447 36.948 4.85386 38.8457C3.30349 40.7433 3.44255 43.5071 5.17515 45.2399C6.90751 46.9727 9.6717 47.1113 11.5694 45.5609C13.4668 44.0103 13.882 41.2745 12.5292 39.2311L14.9461 36.8142L13.6008 35.4685ZM8.56354 44.7059C6.98717 44.7059 5.70895 43.4276 5.70895 41.851C5.70895 40.2742 6.98717 38.9962 8.56354 38.9962C8.98811 38.9976 9.40575 39.0949 9.78667 39.2815L7.89116 41.1777L9.2364 42.5229L11.1333 40.6281C11.3196 41.0091 11.4172 41.4269 11.4186 41.851C11.4186 43.4276 10.1409 44.7059 8.56354 44.7059Z" fill="url(#paint15_linear)"/>
<path d="M16.1777 38.9958H28.5485V40.8995H16.1777V38.9958Z" fill="url(#paint16_linear)"/>
<path d="M16.1777 42.8027H22.8388V44.7059H16.1777V42.8027Z" fill="url(#paint17_linear)"/>
<path d="M24.7422 42.8027H28.5485V44.7059H24.7422V42.8027Z" fill="url(#paint18_linear)"/>
<ellipse cx="44.6779" cy="43.7006" rx="14.3225" ry="14.3225" fill="url(#paint19_linear)"/>
<path d="M38.9203 44.2806L37.2168 45.1311L39.1202 48.9376C39.2566 49.2114 39.5171 49.403 39.8193 49.4519C39.8684 49.4595 39.9175 49.4636 39.9669 49.4643C40.219 49.4643 40.4611 49.3639 40.64 49.1855L52.0589 37.7661L50.7136 36.4204L40.2274 46.9062L38.9203 44.2806Z" fill="white"/>
</g>
<defs>
<linearGradient id="paint0_linear" x1="51.3874" y1="26.6253" x2="3.53021e-08" y2="26.6253" gradientUnits="userSpaceOnUse">
<stop stop-color="#4CBA85"/>
<stop offset="1" stop-color="#2569AC"/>
</linearGradient>
<linearGradient id="paint1_linear" x1="5.70954" y1="5.68973" x2="3.80664" y2="5.68973" gradientUnits="userSpaceOnUse">
<stop stop-color="#4CBA85"/>
<stop offset="1" stop-color="#2569AC"/>
</linearGradient>
<linearGradient id="paint2_linear" x1="9.5169" y1="5.68973" x2="7.61328" y2="5.68973" gradientUnits="userSpaceOnUse">
<stop stop-color="#4CBA85"/>
<stop offset="1" stop-color="#2569AC"/>
</linearGradient>
<linearGradient id="paint3_linear" x1="13.3233" y1="5.68973" x2="11.4199" y2="5.68973" gradientUnits="userSpaceOnUse">
<stop stop-color="#4CBA85"/>
<stop offset="1" stop-color="#2569AC"/>
</linearGradient>
<linearGradient id="paint4_linear" x1="47.5805" y1="9.49624" x2="3.80664" y2="9.49624" gradientUnits="userSpaceOnUse">
<stop stop-color="#4CBA85"/>
<stop offset="1" stop-color="#2569AC"/>
</linearGradient>
<linearGradient id="paint5_linear" x1="14.9461" y1="18.2144" x2="3.77734" y2="18.2144" gradientUnits="userSpaceOnUse">
<stop stop-color="#4CBA85"/>
<stop offset="1" stop-color="#2569AC"/>
</linearGradient>
<linearGradient id="paint6_linear" x1="32.3548" y1="17.1092" x2="16.1777" y2="17.1092" gradientUnits="userSpaceOnUse">
<stop stop-color="#4CBA85"/>
<stop offset="1" stop-color="#2569AC"/>
</linearGradient>
<linearGradient id="paint7_linear" x1="22.8388" y1="20.9153" x2="16.1777" y2="20.9153" gradientUnits="userSpaceOnUse">
<stop stop-color="#4CBA85"/>
<stop offset="1" stop-color="#2569AC"/>
</linearGradient>
<linearGradient id="paint8_linear" x1="38.0644" y1="20.9153" x2="24.7422" y2="20.9153" gradientUnits="userSpaceOnUse">
<stop stop-color="#4CBA85"/>
<stop offset="1" stop-color="#2569AC"/>
</linearGradient>
<linearGradient id="paint9_linear" x1="43.774" y1="17.1092" x2="34.2578" y2="17.1092" gradientUnits="userSpaceOnUse">
<stop stop-color="#4CBA85"/>
<stop offset="1" stop-color="#2569AC"/>
</linearGradient>
<linearGradient id="paint10_linear" x1="14.9461" y1="29.6337" x2="3.77734" y2="29.6337" gradientUnits="userSpaceOnUse">
<stop stop-color="#4CBA85"/>
<stop offset="1" stop-color="#2569AC"/>
</linearGradient>
<linearGradient id="paint11_linear" x1="32.3548" y1="28.5284" x2="16.1777" y2="28.5284" gradientUnits="userSpaceOnUse">
<stop stop-color="#4CBA85"/>
<stop offset="1" stop-color="#2569AC"/>
</linearGradient>
<linearGradient id="paint12_linear" x1="22.8388" y1="32.3349" x2="16.1777" y2="32.3349" gradientUnits="userSpaceOnUse">
<stop stop-color="#4CBA85"/>
<stop offset="1" stop-color="#2569AC"/>
</linearGradient>
<linearGradient id="paint13_linear" x1="32.3548" y1="32.3349" x2="24.7422" y2="32.3349" gradientUnits="userSpaceOnUse">
<stop stop-color="#4CBA85"/>
<stop offset="1" stop-color="#2569AC"/>
</linearGradient>
<linearGradient id="paint14_linear" x1="38.0641" y1="28.5284" x2="34.2578" y2="28.5284" gradientUnits="userSpaceOnUse">
<stop stop-color="#4CBA85"/>
<stop offset="1" stop-color="#2569AC"/>
</linearGradient>
<linearGradient id="paint15_linear" x1="14.9461" y1="41.0531" x2="3.77734" y2="41.0531" gradientUnits="userSpaceOnUse">
<stop stop-color="#4CBA85"/>
<stop offset="1" stop-color="#2569AC"/>
</linearGradient>
<linearGradient id="paint16_linear" x1="28.5485" y1="39.9477" x2="16.1777" y2="39.9477" gradientUnits="userSpaceOnUse">
<stop stop-color="#4CBA85"/>
<stop offset="1" stop-color="#2569AC"/>
</linearGradient>
<linearGradient id="paint17_linear" x1="22.8388" y1="43.7543" x2="16.1777" y2="43.7543" gradientUnits="userSpaceOnUse">
<stop stop-color="#4CBA85"/>
<stop offset="1" stop-color="#2569AC"/>
</linearGradient>
<linearGradient id="paint18_linear" x1="28.5485" y1="43.7543" x2="24.7422" y2="43.7543" gradientUnits="userSpaceOnUse">
<stop stop-color="#4CBA85"/>
<stop offset="1" stop-color="#2569AC"/>
</linearGradient>
<linearGradient id="paint19_linear" x1="59.0004" y1="43.7006" x2="30.3555" y2="43.7006" gradientUnits="userSpaceOnUse">
<stop stop-color="#4CBA85"/>
<stop offset="1" stop-color="#2569AC"/>
</linearGradient>
<clipPath id="clip0">
<rect width="59" height="59" fill="white" transform="translate(0 0.000488281)"/>
</clipPath>
</defs>
</svg>

<svg width="59" height="59" fill="none" xmlns="http://www.w3.org/2000/svg"><g clip-path="url(#clip0)"><path d="M4.758 52.319H29.5v-1.904H4.758a2.855 2.855 0 01-2.855-2.854V5.69a2.855 2.855 0 012.855-2.855h41.871a2.854 2.854 0 012.855 2.855v21.887h1.903V5.69A4.764 4.764 0 0046.63.932H4.758A4.764 4.764 0 000 5.69v41.87a4.765 4.765 0 004.758 4.759z" fill="url(#paint0_linear)"/><path d="M3.807 4.738H5.71v1.903H3.807V4.738z" fill="url(#paint1_linear)"/><path d="M7.613 4.738h1.904v1.903H7.613V4.738z" fill="url(#paint2_linear)"/><path d="M11.42 4.738h1.903v1.903H11.42V4.738z" fill="url(#paint3_linear)"/><path d="M3.807 8.544H47.58v1.904H3.807V8.544z" fill="url(#paint4_linear)"/><path d="M13.6 12.63l-2.416 2.417a4.773 4.773 0 101.345 1.346l2.417-2.417-1.345-1.346zm-5.036 9.237a2.855 2.855 0 010-5.71c.424.002.842.1 1.223.286L7.89 18.339l1.345 1.345 1.897-1.894a2.8 2.8 0 01.286 1.222 2.854 2.854 0 01-2.855 2.855z" fill="url(#paint5_linear)"/><path d="M16.178 16.158h16.177v1.903H16.178v-1.903z" fill="url(#paint6_linear)"/><path d="M16.178 19.964h6.66v1.903h-6.66v-1.903z" fill="url(#paint7_linear)"/><path d="M24.742 19.964h13.322v1.903H24.742v-1.903z" fill="url(#paint8_linear)"/><path d="M34.258 16.158h9.516v1.903h-9.516v-1.903z" fill="url(#paint9_linear)"/><path d="M13.6 24.05l-2.416 2.416a4.773 4.773 0 101.345 1.346l2.417-2.417-1.345-1.346zm-5.036 9.236a2.855 2.855 0 010-5.71c.424.002.842.1 1.223.286L7.89 29.758l1.345 1.346 1.897-1.895c.187.38.284.798.286 1.223a2.855 2.855 0 01-2.855 2.854z" fill="url(#paint10_linear)"/><path d="M16.178 27.577h16.177v1.903H16.178v-1.903z" fill="url(#paint11_linear)"/><path d="M16.178 31.383h6.66v1.903h-6.66v-1.903z" fill="url(#paint12_linear)"/><path d="M24.742 31.383h7.613v1.903h-7.613v-1.903z" fill="url(#paint13_linear)"/><path d="M34.258 27.577h3.806v1.903h-3.806v-1.903z" fill="url(#paint14_linear)"/><path d="M13.6 35.468l-2.416 2.418a4.772 4.772 0 101.345 1.345l2.417-2.417-1.345-1.346zm-5.036 9.238a2.855 2.855 0 010-5.71 2.8 2.8 0 011.223.285L7.89 41.178l1.345 1.345 1.897-1.895c.187.381.284.799.286 1.223a2.855 2.855 0 01-2.855 2.855z" fill="url(#paint15_linear)"/><path d="M16.178 38.996h12.37V40.9h-12.37v-1.904z" fill="url(#paint16_linear)"/><path d="M16.178 42.803h6.66v1.903h-6.66v-1.903z" fill="url(#paint17_linear)"/><path d="M24.742 42.803h3.806v1.903h-3.806v-1.903z" fill="url(#paint18_linear)"/><circle cx="44.678" cy="43.701" fill="url(#paint19_linear)" r="14.322"/><path d="M38.92 44.28l-1.703.851 1.903 3.807a.951.951 0 00.847.526c.252 0 .494-.1.673-.279l11.419-11.419-1.345-1.346-10.487 10.486-1.307-2.625z" fill="#fff"/></g><defs><linearGradient id="paint0_linear" x1="51.387" y1="26.625" x2="0" y2="26.625" gradientUnits="userSpaceOnUse"><stop stop-color="#4CBA85"/><stop offset="1" stop-color="#2569AC"/></linearGradient><linearGradient id="paint1_linear" x1="5.71" y1="5.69" x2="3.807" y2="5.69" gradientUnits="userSpaceOnUse"><stop stop-color="#4CBA85"/><stop offset="1" stop-color="#2569AC"/></linearGradient><linearGradient id="paint2_linear" x1="9.517" y1="5.69" x2="7.613" y2="5.69" gradientUnits="userSpaceOnUse"><stop stop-color="#4CBA85"/><stop offset="1" stop-color="#2569AC"/></linearGradient><linearGradient id="paint3_linear" x1="13.323" y1="5.69" x2="11.42" y2="5.69" gradientUnits="userSpaceOnUse"><stop stop-color="#4CBA85"/><stop offset="1" stop-color="#2569AC"/></linearGradient><linearGradient id="paint4_linear" x1="47.581" y1="9.496" x2="3.807" y2="9.496" gradientUnits="userSpaceOnUse"><stop stop-color="#4CBA85"/><stop offset="1" stop-color="#2569AC"/></linearGradient><linearGradient id="paint5_linear" x1="14.946" y1="18.214" x2="3.777" y2="18.214" gradientUnits="userSpaceOnUse"><stop stop-color="#4CBA85"/><stop offset="1" stop-color="#2569AC"/></linearGradient><linearGradient id="paint6_linear" x1="32.355" y1="17.109" x2="16.178" y2="17.109" gradientUnits="userSpaceOnUse"><stop stop-color="#4CBA85"/><stop offset="1" stop-color="#2569AC"/></linearGradient><linearGradient id="paint7_linear" x1="22.839" y1="20.915" x2="16.178" y2="20.915" gradientUnits="userSpaceOnUse"><stop stop-color="#4CBA85"/><stop offset="1" stop-color="#2569AC"/></linearGradient><linearGradient id="paint8_linear" x1="38.064" y1="20.915" x2="24.742" y2="20.915" gradientUnits="userSpaceOnUse"><stop stop-color="#4CBA85"/><stop offset="1" stop-color="#2569AC"/></linearGradient><linearGradient id="paint9_linear" x1="43.774" y1="17.109" x2="34.258" y2="17.109" gradientUnits="userSpaceOnUse"><stop stop-color="#4CBA85"/><stop offset="1" stop-color="#2569AC"/></linearGradient><linearGradient id="paint10_linear" x1="14.946" y1="29.634" x2="3.777" y2="29.634" gradientUnits="userSpaceOnUse"><stop stop-color="#4CBA85"/><stop offset="1" stop-color="#2569AC"/></linearGradient><linearGradient id="paint11_linear" x1="32.355" y1="28.528" x2="16.178" y2="28.528" gradientUnits="userSpaceOnUse"><stop stop-color="#4CBA85"/><stop offset="1" stop-color="#2569AC"/></linearGradient><linearGradient id="paint12_linear" x1="22.839" y1="32.335" x2="16.178" y2="32.335" gradientUnits="userSpaceOnUse"><stop stop-color="#4CBA85"/><stop offset="1" stop-color="#2569AC"/></linearGradient><linearGradient id="paint13_linear" x1="32.355" y1="32.335" x2="24.742" y2="32.335" gradientUnits="userSpaceOnUse"><stop stop-color="#4CBA85"/><stop offset="1" stop-color="#2569AC"/></linearGradient><linearGradient id="paint14_linear" x1="38.064" y1="28.528" x2="34.258" y2="28.528" gradientUnits="userSpaceOnUse"><stop stop-color="#4CBA85"/><stop offset="1" stop-color="#2569AC"/></linearGradient><linearGradient id="paint15_linear" x1="14.946" y1="41.053" x2="3.777" y2="41.053" gradientUnits="userSpaceOnUse"><stop stop-color="#4CBA85"/><stop offset="1" stop-color="#2569AC"/></linearGradient><linearGradient id="paint16_linear" x1="28.549" y1="39.948" x2="16.178" y2="39.948" gradientUnits="userSpaceOnUse"><stop stop-color="#4CBA85"/><stop offset="1" stop-color="#2569AC"/></linearGradient><linearGradient id="paint17_linear" x1="22.839" y1="43.754" x2="16.178" y2="43.754" gradientUnits="userSpaceOnUse"><stop stop-color="#4CBA85"/><stop offset="1" stop-color="#2569AC"/></linearGradient><linearGradient id="paint18_linear" x1="28.549" y1="43.754" x2="24.742" y2="43.754" gradientUnits="userSpaceOnUse"><stop stop-color="#4CBA85"/><stop offset="1" stop-color="#2569AC"/></linearGradient><linearGradient id="paint19_linear" x1="59" y1="43.701" x2="30.355" y2="43.701" gradientUnits="userSpaceOnUse"><stop stop-color="#4CBA85"/><stop offset="1" stop-color="#2569AC"/></linearGradient><clipPath id="clip0"><path fill="#fff" d="M0 0h59v59H0z"/></clipPath></defs></svg>
